X:1
T:Title
%%score { ( 1 3 5 ) | ( 2 4 ) }
L:1/8
M:4/4
K:F
V:1 treble nm="Grand Piano"
V:3 treble 
V:5 treble 
V:2 bass 
V:4 bass 
V:1
 z4 z2[Q:1/4=100] C>F | [FA]4 z4 | z2 [FAc]4 z2 | [FA]4 z4 | [FAc]6 z2 | %5
 [FBd]2 [FAc]2 [CFA]2 [FAc]2 | [FBd]2 [FAc]2 [CFA]2 [FA]2 | z2 z G [CEG]2 [CFA]2 | [CEG]6 z2 | %9
 [FA]4 z4 |[M:3/4] z2 [FAc]4 |[M:1/4] C>F |[M:4/4] [FA]4 z4 | [FAc]6 z2 | d2 f2 e2 [Fd]2 | %15
 d2 c2 c2 A>A | c2 [DFB]2 [CFA]2 [B,EG]2 |[M:3/4] F6 |[M:1/4] z2 |[M:4/4] [FAd]4 z4 | z B3- B2 z2 | %21
 z2 z F [CEG]2 [CE_A]2 | [FA]2- [CF-A-]2 [CFA]2 A>c | [FAd]4 z4 | [DG]2 [DFB]2 [FBd]2 e>d | %25
 [EGc]4 z4 |[M:3/4] F6 |] %27
V:2
 z8 | z2 [F,A,]2 z4 | [F,,F,]2 [F,A,C]2 [F,A,]2 z2 | z2 [F,A,]2 z4 | %4
 [F,,F,]2 [F,A,]2 [F,A,]2 [F,A,C]2 | [B,,F,B,]2 [F,A,C]2 [F,,F,]2 [F,A,C]2 | %6
 [B,,F,B,]2 [F,A,C]2 [F,,F,]2 [F,A,C]2 | z2 [C,G,]2 z4 | [C,,C,]2 [C,G,]2 [C,G,]2 z2 | %9
 z2 [F,A,]2 z4 |[M:3/4] [F,,F,]2 [F,A,C]2 [F,A,]2 |[M:1/4] z2 |[M:4/4] z2 [F,A,]2 z4 | %13
 [F,,F,]2 [F,A,]2 [F,A,]2[K:treble] [F,A,F]>[F,A,F] | [B,F]2 [B,DF]2 [B,CF]2[K:bass] [B,,B,]2 | %15
 [F,B,F]2 [F,A,F]2 [F,A,F]2 [F,CF]>[F,CF] | [F,A,F]2 B,,2 C,2 C,2 |[M:3/4] z2 B,2 A,2 | %18
[M:1/4][K:treble] A>c |[M:4/4][K:bass] [F,,F,]2 z [FA] [F,,F,]2 [F,A,C]2 | %20
 B,,2 [D,F,]2 [D,F,]2 [D,F,B,]2 | z2 [C,F,]2 z4 | [F,,F,]2 [F,A,]2 [F,A,]2 z2 | z2 [F,A,]2 z4 | %24
 [B,,B,]2 [F,B,]2 [F,B,D]2 z2 | z2 [E,G,]2 z4 |[M:3/4] [F,,F,]2 [F,B,]2 [F,A,]2 |] %27
V:3
 x8 | C2 CA [CEGB]2 [CEG]2 | [FAc]2 z2 C2 C>F | C2 CA [CEGB]2 [CEG]2 | z2 C2 C2 [FAc]2 | x8 | x8 | %7
 [CFA]4 z4 | z2 B,2 B,2 C>F | C2 CA [CEGB]2 [CEG]2 |[M:3/4] [FAc]2 z2 C2 |[M:1/4] x2 | %12
[M:4/4] C2 CA [CEGB]2 [CEG]2 | z2 C2 C2 c>c | x8 | x8 | x8 |[M:3/4] A,2 z2 z2 |[M:1/4] x2 | %19
[M:4/4] z2 z c [CFA]2 F2 | .D2 B,2 B,2 F>D | C4 z4 | C2 z2 z4 | z2 z c [DFB]2 [CFA]2 | x8 | %25
 z2 z c [CEB]2 [CEG]2 |[M:3/4] z2 D2 C2 |] %27
V:4
 x8 | [F,,F,]2 z [CF] [C,,C,]2 [C,G,B,]2 | x8 | [F,,F,]2 z [CF] [C,,C,]2 [C,G,B,]2 | x8 | x8 | x8 | %7
 [C,,C,]2 z [CE] [C,,C,]2 [C,F,A,]2 | x8 | [F,,F,]2 z [CF] [C,,C,]2 [C,G,B,]2 |[M:3/4] x6 | %11
[M:1/4] x2 |[M:4/4] [F,,F,]2 z [CF] [C,,C,]2 [C,G,B,]2 | x6[K:treble] x2 | x6[K:bass] x2 | x8 | %16
 x8 |[M:3/4] F,6 |[M:1/4][K:treble] x2 |[M:4/4][K:bass] z2 [F,A,]2 z4 | x8 | %21
 [F,,F,]2 z C [C,,C,]2 [C,,D,]2 | x8 | [F,,F,]2 z [FA] [D,,D,]2 [C,,C,]2 | x8 | %25
 [C,,C,]2 z [EG] [C,,C,]2 [C,E,G,B,]2 |[M:3/4] x6 |] %27
V:5
 x8 | x8 | x8 | x8 | x8 | x8 | x8 | z2 B,2 z4 | x8 | x8 |[M:3/4] x6 |[M:1/4] x2 |[M:4/4] x8 | x8 | %14
 x8 | x8 | x8 |[M:3/4] x6 |[M:1/4] x2 |[M:4/4] z2 C2 z4 | x8 | z2 A,2 z4 | x8 | z2 C2 z4 | x8 | %25
 z2 C2 z4 |[M:3/4] x6 |] %27

